X: 33713
T: Raphoe, The
R: reel
M: 4/4
K: Emixolydian
e2BA ~=G3E|F2DF EF=GA|Be~e2 ef=ge|f=gbg fd~d2|
fg~g2 a2fe|(3cde fe dBAF|EFGA Beef|1 dBAF FEGB:|2 dBAF FEEA||
|:FDFA GEGB|~e3f geBe|~a3b af^df|b^afe ^dBAF|
Ee~e2 ef=ge|Bdce dBAd|BAFB cdBA|1 FEDF E3A:|2 FEDF EFGB||

